X:263
T:Archibald MacDonald of Keppoch
O:England
M:3/4
L:1/8
S:Alasdair Fraser
K:D Dorian
DE|F3 G A2|f3 e d2|c3 A F2|G4 DE|F3 G A2|f3 e d2|A d3 ^c2|d4:|
de|f3 e d2|c3 _B A2|_B3 A G2|A4 DE|F3 G A2|f3 e d2|A d3 ^c2|d4 fg|
a3 g f2|f3 e d2|c3 A F2|G4 DE|F3 G A2|f3 g a2|A d3 ^c2|d4||


